X: 38659
T: Stow Quickstep, The
R: jig
M: 6/8
K: Dmajor
|:ABA ABA|A2 d f3|fed cde|d2 f A3|
ABA ABA|A2 d f3|agf edc|d3 d3:|
K:A
|:efe efe|e2 a c3|BcB BcB|A2 c e3|
efe efe|e2 a c3|B2 B BcB|A3 A3:|

